humanity-icon-theme/Humanity/actions/22/help-hint.svg

<?xml version="1.0" encoding="UTF-8" standalone="no"?>
<!-- Created with Inkscape (http://www.inkscape.org/) -->

<svg
   xmlns:svg="http://www.w3.org/2000/svg"
   xmlns="http://www.w3.org/2000/svg"
   xmlns:xlink="http://www.w3.org/1999/xlink"
   version="1.0"
   width="22"
   height="22"
   id="svg2">
  <defs
     id="defs4">
    <linearGradient
       id="linearGradient2490-182-124">
      <stop
         id="stop2788"
         style="stop-color:#1f4b6a;stop-opacity:1"
         offset="0" />
      <stop
         id="stop2790"
         style="stop-color:#4083c2;stop-opacity:1"
         offset="1" />
    </linearGradient>
    <linearGradient
       x1="18.379412"
       y1="44.980297"
       x2="18.379412"
       y2="3.0816143"
       id="linearGradient2412"
       xlink:href="#linearGradient2490-182-124"
       gradientUnits="userSpaceOnUse"
       gradientTransform="matrix(0.5160413,0,0,0.5160413,-1.3849489,-1.3850332)" />
    <linearGradient
       id="linearGradient3242-187-536">
      <stop
         id="stop2778"
         style="stop-color:#8badea;stop-opacity:1"
         offset="0" />
      <stop
         id="stop2780"
         style="stop-color:#6396cd;stop-opacity:1"
         offset="0.26238" />
      <stop
         id="stop2782"
         style="stop-color:#3b7caf;stop-opacity:1"
         offset="0.66093999" />
      <stop
         id="stop2784"
         style="stop-color:#194c70;stop-opacity:1"
         offset="1" />
    </linearGradient>
    <radialGradient
       cx="23.895569"
       cy="3.9900031"
       r="20.397499"
       fx="23.895569"
       fy="3.9900031"
       id="radialGradient2410"
       xlink:href="#linearGradient3242-187-536"
       gradientUnits="userSpaceOnUse"
       gradientTransform="matrix(0,1.2316137,-1.6257082,0,17.486623,-29.720825)" />
    <linearGradient
       id="linearGradient4873">
      <stop
         id="stop4875"
         style="stop-color:white;stop-opacity:1"
         offset="0" />
      <stop
         id="stop4877"
         style="stop-color:white;stop-opacity:0"
         offset="1" />
    </linearGradient>
    <linearGradient
       x1="63.397362"
       y1="-12.489107"
       x2="63.397362"
       y2="5.4675598"
       id="linearGradient2407"
       xlink:href="#linearGradient4873"
       gradientUnits="userSpaceOnUse"
       gradientTransform="matrix(1.0862728,0,0,1.0862481,-56.566568,14.813596)" />
  </defs>
  <g
     id="layer1">
    <path
       d="m 11.000044,0.50174288 c -5.7925529,0 -10.49821688,4.70566162 -10.49821688,10.49821412 0,5.792554 4.70566398,10.498219 10.49821688,10.498216 5.79255,0 10.498219,-4.705662 10.498213,-10.498216 0,-5.7925525 -4.705663,-10.49821412 -10.498213,-10.49821412 z"
       id="path2555"
       style="fill:url(#radialGradient2410);fill-opacity:1;stroke:url(#linearGradient2412);stroke-width:1.00365424;stroke-linecap:round;stroke-linejoin:round;stroke-miterlimit:4;stroke-opacity:1;stroke-dasharray:none;stroke-dashoffset:0" />
    <path
       d="m 20.500041,10.999621 c 0,5.246874 -4.253609,9.500336 -9.499879,9.500336 -5.2467525,0 -9.50012,-4.253509 -9.50012,-9.500336 0,-5.2466313 4.2533675,-9.4996624 9.50012,-9.4996624 5.24627,0 9.499879,4.2530311 9.499879,9.4996624 l 0,0 z"
       id="path2463"
       style="opacity:0.4;fill:none;stroke:url(#linearGradient2407);stroke-width:0.99999994;stroke-miterlimit:4;stroke-opacity:1;stroke-dasharray:none" />
    <path
       d="m 9.5992691,4.2866447 c 0.331945,2.8104459 0.7121699,5.6015492 0.9947399,8.4230033 0.284211,0 0.617557,0 0.901768,0 C 11.73016,10.000157 12.108208,7.3070388 12.38092,4.6009069 12.519934,3.960133 12.140367,3.1993342 11.359706,3.0436548 10.588298,2.8481691 9.7264421,3.3322535 9.6238681,4.0237289 9.6068561,4.1105323 9.5992661,4.1986307 9.5992711,4.2866447 l -2e-6,0 z m -0.09838,11.4264803 c -0.035101,0.836563 1.0268919,1.492345 1.9336279,1.227123 0.87824,-0.194275 1.340822,-1.151039 0.890723,-1.831133 -0.402917,-0.703026 -1.584447,-0.93466 -2.264126,-0.396605 -0.3435659,0.244652 -0.5712849,0.609885 -0.5602249,1.000616 l 0,-1e-6 z"
       id="path3295"
       style="font-size:62.4582634px;font-style:normal;font-variant:normal;font-weight:normal;font-stretch:normal;text-align:start;line-height:125%;writing-mode:lr-tb;text-anchor:start;opacity:0.2;fill:black;fill-opacity:1;stroke:none;font-family:Georgia" />
    <path
       d="m 9.5992691,5.286645 c 0.331945,2.810446 0.7121699,5.60155 0.9947399,8.423004 0.284211,0 0.617557,0 0.901768,0 C 11.73016,11.000157 12.108208,8.3070391 12.38092,5.6009073 12.519934,4.9601334 12.140367,4.1993346 11.359706,4.0436551 10.588298,3.8481696 9.7264421,4.3322537 9.6238681,5.0237293 9.6068561,5.1105326 9.5992661,5.198631 9.5992711,5.286645 l -2e-6,0 z m -0.09838,11.426481 c -0.035101,0.836563 1.0268919,1.492345 1.9336279,1.227122 0.87824,-0.194275 1.340822,-1.151039 0.890723,-1.831132 -0.402917,-0.703026 -1.584447,-0.93466 -2.264126,-0.396605 -0.3435659,0.244652 -0.5712849,0.609885 -0.5602249,1.000616 l 0,-1e-6 z"
       id="text2315"
       style="font-size:62.4582634px;font-style:normal;font-variant:normal;font-weight:normal;font-stretch:normal;text-align:start;line-height:125%;writing-mode:lr-tb;text-anchor:start;fill:white;fill-opacity:1;stroke:none;font-family:Georgia" />
  </g>
</svg>

<?xml version="1.0" encoding="UTF-8" standalone="no"?>
<!-- Created with Inkscape (http://www.inkscape.org/) -->
<svg
   xmlns:svg="http://www.w3.org/2000/svg"
   xmlns="http://www.w3.org/2000/svg"
   xmlns:xlink="http://www.w3.org/1999/xlink"
   version="1.0"
   width="22"
   height="22"
   id="svg2">
  <defs
     id="defs4">
    <linearGradient
       id="linearGradient2490-182-124">
      <stop
         id="stop2788"
         style="stop-color:#1f4b6a;stop-opacity:1"
         offset="0" />
      <stop
         id="stop2790"
         style="stop-color:#4083c2;stop-opacity:1"
         offset="1" />
    </linearGradient>
    <linearGradient
       x1="18.379412"
       y1="44.980297"
       x2="18.379412"
       y2="3.0816143"
       id="linearGradient2412"
       xlink:href="#linearGradient2490-182-124"
       gradientUnits="userSpaceOnUse"
       gradientTransform="matrix(0.5160413,0,0,0.5160413,-1.3849489,-1.3850332)" />
    <linearGradient
       id="linearGradient3242-187-536">
      <stop
         id="stop2778"
         style="stop-color:#8badea;stop-opacity:1"
         offset="0" />
      <stop
         id="stop2780"
         style="stop-color:#6396cd;stop-opacity:1"
         offset="0.26238" />
      <stop
         id="stop2782"
         style="stop-color:#3b7caf;stop-opacity:1"
         offset="0.66093999" />
      <stop
         id="stop2784"
         style="stop-color:#194c70;stop-opacity:1"
         offset="1" />
    </linearGradient>
    <radialGradient
       cx="23.895569"
       cy="3.9900031"
       r="20.397499"
       fx="23.895569"
       fy="3.9900031"
       id="radialGradient2410"
       xlink:href="#linearGradient3242-187-536"
       gradientUnits="userSpaceOnUse"
       gradientTransform="matrix(0,1.2316137,-1.6257082,0,17.486623,-29.720825)" />
    <linearGradient
       id="linearGradient4873">
      <stop
         id="stop4875"
         style="stop-color:#ffffff;stop-opacity:1"
         offset="0" />
      <stop
         id="stop4877"
         style="stop-color:#ffffff;stop-opacity:0"
         offset="1" />
    </linearGradient>
    <linearGradient
       x1="63.397362"
       y1="-12.489107"
       x2="63.397362"
       y2="5.4675598"
       id="linearGradient2407"
       xlink:href="#linearGradient4873"
       gradientUnits="userSpaceOnUse"
       gradientTransform="matrix(1.0862728,0,0,1.0862481,-56.566568,14.813596)" />
  </defs>
  <g
     id="layer1">
    <path
       d="M 11.000044,0.50174288 C 5.2074911,0.50174288 0.50182712,5.2074045 0.50182712,10.999957 C 0.50182712,16.792511 5.2074911,21.498176 11.000044,21.498173 C 16.792594,21.498173 21.498263,16.792511 21.498257,10.999957 C 21.498257,5.2074045 16.792594,0.50174288 11.000044,0.50174288 z"
       id="path2555"
       style="fill:url(#radialGradient2410);fill-opacity:1;stroke:url(#linearGradient2412);stroke-width:1.00365424;stroke-linecap:round;stroke-linejoin:round;stroke-miterlimit:4;stroke-dasharray:none;stroke-dashoffset:0;stroke-opacity:1" />
    <path
       d="M 20.500041,10.999621 C 20.500041,16.246495 16.246432,20.499957 11.000162,20.499957 C 5.7534095,20.499957 1.500042,16.246448 1.500042,10.999621 C 1.500042,5.7529897 5.7534095,1.4999586 11.000162,1.4999586 C 16.246432,1.4999586 20.500041,5.7529897 20.500041,10.999621 L 20.500041,10.999621 z"
       id="path2463"
       style="opacity:0.4;fill:none;fill-opacity:1;fill-rule:nonzero;stroke:url(#linearGradient2407);stroke-width:0.99999994;stroke-miterlimit:4;stroke-dasharray:none;stroke-opacity:1" />
    <path
       d="M 9.5992691,4.2866447 C 9.9312141,7.0970906 10.311439,9.8881939 10.594009,12.709648 C 10.87822,12.709648 11.211566,12.709648 11.495777,12.709648 C 11.73016,10.000157 12.108208,7.3070388 12.38092,4.6009069 C 12.519934,3.960133 12.140367,3.1993342 11.359706,3.0436548 C 10.588298,2.8481691 9.7264421,3.3322535 9.6238681,4.0237289 C 9.6068561,4.1105323 9.5992661,4.1986307 9.5992711,4.2866447 L 9.5992691,4.2866447 z M 9.5008891,15.713125 C 9.4657881,16.549688 10.527781,17.20547 11.434517,16.940248 C 12.312757,16.745973 12.775339,15.789209 12.32524,15.109115 C 11.922323,14.406089 10.740793,14.174455 10.061114,14.71251 C 9.7175481,14.957162 9.4898291,15.322395 9.5008891,15.713126 L 9.5008891,15.713125 z"
       id="path3295"
       style="font-size:62.4582634px;font-style:normal;font-variant:normal;font-weight:normal;font-stretch:normal;text-align:start;line-height:125%;writing-mode:lr-tb;text-anchor:start;opacity:0.2;fill:#000000;fill-opacity:1;stroke:none;stroke-width:0.5;stroke-linecap:round;stroke-linejoin:round;stroke-miterlimit:4;stroke-dasharray:none;stroke-opacity:1;font-family:Georgia" />
    <path
       d="M 9.5992691,5.286645 C 9.9312141,8.097091 10.311439,10.888195 10.594009,13.709649 C 10.87822,13.709649 11.211566,13.709649 11.495777,13.709649 C 11.73016,11.000157 12.108208,8.3070391 12.38092,5.6009073 C 12.519934,4.9601334 12.140367,4.1993346 11.359706,4.0436551 C 10.588298,3.8481696 9.7264421,4.3322537 9.6238681,5.0237293 C 9.6068561,5.1105326 9.5992661,5.198631 9.5992711,5.286645 L 9.5992691,5.286645 z M 9.5008891,16.713126 C 9.4657881,17.549689 10.527781,18.205471 11.434517,17.940248 C 12.312757,17.745973 12.775339,16.789209 12.32524,16.109116 C 11.922323,15.40609 10.740793,15.174456 10.061114,15.712511 C 9.7175481,15.957163 9.4898291,16.322396 9.5008891,16.713127 L 9.5008891,16.713126 z"
       id="text2315"
       style="font-size:62.4582634px;font-style:normal;font-variant:normal;font-weight:normal;font-stretch:normal;text-align:start;line-height:125%;writing-mode:lr-tb;text-anchor:start;fill:#ffffff;fill-opacity:1;stroke:none;stroke-width:0.5;stroke-linecap:round;stroke-linejoin:round;stroke-miterlimit:4;stroke-dasharray:none;stroke-opacity:1;font-family:Georgia" />
  </g>
</svg>
